X:1
T:Carol of the Bells Christmas Medley
T:Carol of the Bells Christmas Medley
T:Arr. Xingyu Shui
%%score { ( 1 3 ) | 2 }
L:1/8
M:3/4
K:Bb
V:1 treble nm="Piano" snm="Pno."
V:3 treble 
V:2 bass 
V:1
 b2 ab g2 | b2 ab g2 | b2 ab g2 | b2 ab g2 | b2 ab g2 | b2 ab g2 | b2 ab g2 | b2 ab g2 | %8
 d'2 c'd' b2 | d'2 c'd' b2 | d'2 c'd' b2 | d'2 c'd' b2 | d'2 c'd' b2 | d'2 c'd' b2 | d'2 c'd' b2 | %15
 d'2 c'd' b2 | g'2 g'g' f'e' | d'2 d'd' c'b | c'2 c'c' d'c' | g6 | d=e ^fg ab | c'd' c'2 b2 | %22
 d=e ^fg ab | g6 |[Q:1/4=152] B2 AB G2 | B2 AB G2 | B2 AB G2 | B2 AB G2 | B2 AB G2 | B2 AB G2 | %30
 B2 AB G2 | B2 AB G2 | d2 cd B2 | d2 cd B2 | d2 cd B2 | d2 cd B2 | d2 cd B2 | d2 cd B2 | d2 cd B2 | %39
 d2 cd B2 | g2 gg fe | d2 dd cB | c2 cc dc | B2 AB G2 | D=E ^FG AB | cd c2 B2 | D=E ^FG AB | %47
 cd c2 !fermata!B2 |[Q:1/4=172] B2 AB G2 | B2 AB G2 | B2 AB G2 | B2 AB G2 | B2 AB G2 | B2 AB G2 | %54
 B2 AB G2 | B2 AB G2 | d2 cd B2 | d2 cd B2 | d2 cd B2 | d2 cd B2 | d2 cd B2 | d2 cd B2 | d2 cd B2 | %63
 d2 cd B2 | [Bg]2 gg fe | [Fd]2 dd cB | [Ec]2 cc dc | [GB]2 AB G2 | D=E ^FG AB | cd c2 B2 | %70
 D=E ^FG AB | cd c2 BA | G3 [Gd]3 | [Bd]3 [Ac]3 | [GB]3 [FA]3 | [EG]3 F3 | [EG]3 [FA]3 | %77
 [GB]3 [Gc]3 | [^FAd]6- | [FAd]3 c BA | G3 [Gd]3 | [Bd]3 [Ac]3 | [GB]3 [FA]3 | [EG]3 F3 | %84
 [EG]3 [FA]3 | [GB]3 [Gc]3 | [^FAd]6- | [FAd]3 [Ad]3 | [Ge]3 [Gc]3 | [Gd]3 [Ge]3 | [Af]3 [Ag]3 | %91
 [Ad]3 [Ac]3 | [GB]3 [EG]3 | [EA]3 [EB]3 | [Dc]6 | [GB]3 [Ac]3 | [Bd]6 | [ce]3 [Bd]3 | %98
 [^Fd]3 [Fc]3 | [^FB]3 [FA]3 | [B,DG]6 | [GB]2 [FA]2 [EG]2 | [Dc]6 | [GB]3 [Ac]3 | [Bd]3 [ce]3 | %105
 [df]3 [Bg]3 | [^Fd]3 [Fc]3 | [^FB]3 [FA]3 | [GB]D [GB]D [GA]D | [GB]D [GB]D [GA]D | %110
 [GB]D [GB]D [GA]D | [GB]D [GB]D GD | [Bd]G [Bd]G [Bc]G | [Bd]G [Bd]G [Bc]G | [Bd]G [Bd]G [Bc]G | %115
 [Bd]G [Bd]G BG | gG gG fe | dG dG cB | cD cD dc | [GB]D [FA]D [DG]2 | D=E ^FG AB | cd c2 B2 | %122
 D=E ^FG AB | cd c2 G2 | [GB]3 [Gd]3 | [Fd]3 [Fd]3 | [Ec]3 [Ge]3 | [Fd]3 [Ec]3 | [EB]6- | %129
 [EB]3 [Fc]3 | [Gd]3 [GB]3 | [EG]3 [EB]3 | [Dc]3 [FA]3 | [EG]3 [DF]3 | [EG]6- | [EG]3 c3 | %136
 [Gc]3 [DG]3 | [FG]3 [FA]3 | [EB]6 | [DA]3 [DG]3 | [A,CF]6- | [A,CF]3 [Bf]3 | [Af]6- | [Af]3 d3 | %144
 [Gd]6- | [Gd]3 [Fd]3 | [Ec]3 [Ge]3 | [Bd]3 [Ac]3 | [GB-]6 | [EB]3 [Ac]3 | [Gd]3 [GB]3 | %151
 [EG]3 [EB]3 | [Dc]3 [FA]3 | [EG]3 [DF]3 | [GB]D AB GD | [GB]D AB GD | [GB]D AB GD | [GB]D AB GD | %158
 [Bd]G cd BD | [Bd]G cd BD | [Bd]G cd BD | [Bd]G cd BD | gG fg fe | dG cd cB | cD Bc BA | %165
 [GB]D AB [DG]2 | D=E ^FG AB | cd c2 B2 | D=E ^FG AB | cd e2 a2 | [Bgb]6- | [Bgb]3 [Aa]2 [Gg] | %172
 [Afa]6- | [Afa]3 [Aa]3 | [cgc']6- | [cgc']2 [dg] [dg]2 [cg] | [Bgb]6 | [Bgb]4 [Bb]2 | [dbd']6 | %179
 [fac']4 [Af]2 | [Bgb]6 | [cfa]4 [Gg]2 | [Fdf]6- | [Fdf]2 [df] [cg]2 [Bf] | [Fdf]6- | %185
 [Fdf]4 [Bb]2 | [fac']6- | [fac']4 [Af]2 | [dbd']6- | [dbd']4 [cc']2 | [dgb]6 | %191
 [dfa]2 [dfb]2 [dfc']2 | [Bdgb]2 ab [Bdg]2 | [Bgb]d ab [Bdg]2 | [Bgb]d ab [Bg]d | %195
 [Bgb]d [fa]d [eg]B | [dbd']g [dac']g [db]g | [dbd']g c'd' [db]g | [dbd']g c'd' [dgb]2 | %199
 [dgbd']2 c'd' [dgb]2 | [gbd'g']2 gg' f'e' | [dbd']g bd' c'b | [dac']g ac' ba | [GBg]d BA G2 | %204
 D=E ^FG AB | cd c2 B2 | D=E ^FG AB | cd c2 B2 | DE =EF ^FG | ^GA B=B c^c | %210
 [Dd][Ee] [=E=e][Ff] [^F^f][Gg] | [^G^g][Aa] [Bb][=B=b] [cc'][^c^c'] | %212
 [dd'][=e=e'] [^f^f'][gg'] [aa'][bb'] | [dd'][=e=e'] [^f^f'][gg'] [aa'][bb'] | %214
 [dd'][=e=e'] [^f^f'][gg'] [aa']!~(![bb'] | z6 |] %216
V:2
 z6 | z6 | z6 | z6 | z6 | z6 | z6 | z6 | z6 | z6 | z6 | z6 | z6 | z6 | z6 | z6 | z6 | z6 | z6 | %19
 z6 | z6 | z6 | z6 | z6 | [G,,G,]6 | [F,,F,]6 | [E,,E,]6 | [D,,D,]6 | [G,,G,]6 | [F,,F,]6 | %30
 [E,,E,]6 | [D,,D,]6 | [G,,G,]6 | [F,,F,]6 | [E,,E,]6 | [D,,D,]6 | [G,,G,]6 | [F,,F,]6 | [E,,E,]6 | %39
 [D,,D,]6 | [G,,G,]6 | [F,,F,]6 | [E,,E,]6 | [D,,D,]6 | [D,,D,]6- | [D,,D,]2 [D,,D,]2 [D,,D,]2 | %46
 [D,,D,]6- | [D,,D,]2 [D,,D,]2 [D,,D,]2 | G,,G,, G,G,, G,,G, | F,,F,, F,F,, F,,F, | %50
 E,,E,, E,E,, E,,E, | D,,D,, D,D,, D,,D, | E,,E,, E,E,, E,,E, | G,,G,, G,G,, G,,G, | %54
 E,,E,, E,E,, E,,E, | D,,D,, D,D,, D,,D, | G,,G,, G,G,, G,,G, | F,,F,, F,F,, F,,F, | %58
 E,,E,, E,E,, E,,E, | D,,D,, D,D,, D,,D, | E,,E,, E,E,, E,,E, | G,,G,, G,G,, G,,G, | %62
 E,,E,, E,E,, E,,E, | D,,D,, D,D,, D,,D, | G,,G,, G,G,, G,,G, | F,,F,, F,F,, F,,F, | %66
 E,,E,, E,E,, E,,E, | G,,G,, G,G,, G,,G, | D,,D,, D,D,, D,,D, | D,,D, [=E,,D,]2 [^F,,D,]2 | %70
 D,,D,, D,D,, D,,D, | D,,D, [=E,,D,]2 [^F,,D,]2 | G,,G,, G,G,, G,,G, | F,,F,, F,F,, F,,F, | %74
 E,,E,, E,E,, E,,E, | D,,D,, D,D,, D,,D, | E,,E,, E,E,, E,,E, | G,,G,, G,G,, G,,G, | %78
 D,,D,, D,D,, D,,D, | D,,D,, D,D,, D,,D, | G,,G,, G,G,, G,,G, | F,,F,, F,F,, F,,F, | %82
 E,,E,, E,E,, E,,E, | D,,D,, D,D,, D,,D, | E,,E,, E,E,, E,,E, | G,,G,, G,G,, G,,G, | %86
 D,,D,, D,D,, D,,D, | D,,D,, D,D,, D,,D, | C,,C,, C,C,, C,,C, | E,,E,, E,E,, E,,E, | %90
 G,,G,, G,G,, G,,G, | G,,G,, G,G,, G,,G, | E,,E,, E,E,, E,,E, | E,,E,, E,E,, E,,E, | %94
 D,,D,, D,D,, D,,D, | D,,D,, D,D,, D,,D, | G,,G,, G,G,, G,,G, | G,,G,, G,G,, G,,G, | %98
 D,,D,, D,D,, D,,D, | D,,D,, D,D,, D,,D, | G,,G,, G,G,, G,,G, | E,,E,, E,E,, E,,E, | %102
 D,,D,, D,D,, D,,D, | D,,D,, D,D,, D,,D, | G,,G,, G,G,, G,,G, | G,,G,, G,G,, G,,G, | %106
 D,,D,, D,D,, D,,D, | D,,D,, D,D,, D,,D, | G,,G,, G,G,, G,,G, | F,,F,, F,F,, F,,F, | %110
 E,,E,, E,E,, E,,E, | D,,D,, D,D,, D,,D, | G,,G,, G,G,, G,,G, | F,,F,, F,F,, F,,F, | %114
 E,,E,, E,E,, E,,E, | D,,D,, D,D,, D,,D, | G,,G,, G,G,, G,,G, | F,,F,, F,F,, F,,F, | %118
 E,,E,, E,E,, E,,E, | G,,G,, G,G,, G,,G, | D,,D,, D,D,, D,,D, | D,,D, [=E,,D,]2 [^F,,D,]2 | %122
 D,,D,, D,D,, D,,D, | D,,D, [=E,,D,]2 [^F,,D,]2 | G,,G,, G,G,, G,,G, | F,,F,, F,F,, F,,F, | %126
 E,,E,, E,E,, E,,E, | D,,D,, D,D,, D,,D, | E,,E,, E,E,, E,,E, | E,,E,, E,E,, E,,E,, | %130
 G,,G,, G,G,, G,,G, | E,,E,, E,E,, E,,E, | D,,D,, D,D,, D,,D, | D,,D,, D,D,, D,,D, | %134
 E,,E,, E,E,, E,,E, | E,,E,, E,E,, E,,E, | G,,G,, G,G,, G,,G, | F,,F,, F,F,, F,,F, | %138
 E,,E,, E,E,, E,,E, | D,,D,, D,D,, D,,D, | F,,F,, F,F,, F,,F, | A,,A,, A,A,, A,,A, | %142
 F,,F,, F,F,, F,,F, | A,,A,, A,A,, A,,A, | G,,G,, G,G,, G,,G, | F,,F,, F,F,, F,,F, | %146
 E,,E,, E,E,, E,,E, | D,,D,, D,D,, D,,D, | G,,G,, G,G,, G,,G, | E,,E,, E,E,, E,,E, | %150
 G,,G,, G,G,, G,,G, | E,,E,, E,E,, E,,E, | D,,D,, D,D,, D,,D, | D,,D,, D,D,, D,,D, | %154
 G,,G,, G,G,, G,,G, | F,,F,, F,F,, F,,F, | E,,E,, E,E,, E,,E, | D,,D,, D,D,, D,,D, | %158
 G,,G,, G,G,, G,,G, | F,,F,, F,F,, F,,F, | E,,E,, E,E,, E,,E, | D,,D,, D,D,, D,,D, | %162
 G,,G,, G,G,, G,,G, | F,,F,, F,F,, F,,F, | E,,E,, E,E,, E,,E, | G,,G,, G,G,, G,,G, | %166
 D,,D,, D,D,, D,,D, | D,,D, [=E,,D,]2 [^F,,D,]2 | D,,D,, D,D,, D,,D, | D,,D, [=E,,D,]2 [^F,,D,]2 | %170
 G,,G,, G,G,, G,,G, | G,,G,, G,G,, G,,G, | F,,F,, F,F,, F,,F, | F,,F,, F,F,, F,,F, | %174
 E,,E,, E,E,, E,,E, | E,,E,, E,E,, E,,E, | G,,G,, G,G,, G,,G, | G,,G,, G,G,, G,,G, | %178
 B,,B,, B,B,, B,,B, | F,,F,, F,F,, F,,F, | G,,G,, G,G,, G,,G, | F,,F,, F,F,, F,,F, | %182
 B,,B,, B,B,, B,,B, | F,,F,, F,F,, F,,F, | B,,B,, B,B,, B,,B, | B,,B,, B,B,, B,,B, | %186
 F,,F,, F,F,, F,,F, | F,,F,, F,F,, F,,F, | B,,B,, B,B,, B,,B, | B,,B,, B,B,, B,,B, | %190
 G,,G,, G,G,, G,,G, | F,,F,, F,F,, F,,F, | G,,G,, G,G,, G,,G, | F,,F,, F,F,, F,,F, | %194
 E,,E,, E,E,, E,,E, | D,,D,, D,D,, D,,D, | G,,G,, G,G,, G,,G, | F,,F,, F,F,, F,,F, | %198
 E,,E,, E,E,, E,,E, | D,,D,, D,D,, D,,D, | G,,G,, G,G,, G,,G, | F,,F,, F,F,, F,,F, | %202
 E,,E,, E,E,, E,,E, | G,,G,, G,G,, G,,G, | D,,D,, D,D,, D,,D, | D,,D, [=E,,D,]2 [^F,,D,]2 | %206
 D,,D,, D,D,, D,,D, | D,,D, [=E,,D,]2 [^F,,D,]2 | D,,D,, D,D,, D,,D, | D,,D,, D,D,, D,,D, | %210
 [D,,D,][D,,D,] [D,,D,][D,,D,] [D,,D,][D,,D,] | [D,,D,][D,,D,] [D,,D,][D,,D,] [D,,D,][D,,D,] | %212
 [D,A,D]2 [D,A,D]2 [D,A,D]2 | [D,A,D]2 [D,A,D]2 [D,A,D]2 | [D,A,D]2 [D,A,D]2 [D,A,D]2 | %215
 !~)![G,,,G,,]2 z4 |] %216
V:3
 x6 | x6 | x6 | x6 | g6 | f6 | e6 | d6 | g6 | f6 | e6 | d6 | g6 | e6 | g6 | d6 | g6 | f6 | e6 | %19
 d6 | d2 d2 d2 | d2 d2 d2 | d2 d2 d2 | B6 | G6 | G6 | G6 | G6 | G6 | G6 | G6 | G6 | G6 | G6 | G6 | %35
 G6 | G6 | G6 | G6 | G6 | x6 | x6 | x6 | x6 | D2 D2 D2 | D2 D2 D2 | D2 D2 D2 | D2 D2 D2 | G6 | G6 | %50
 G6 | G6 | G6 | G6 | G6 | G6 | G6 | G6 | G6 | G6 | G6 | G6 | G6 | G6 | x6 | x6 | x6 | x6 | %68
 D2 D2 D2 | D2 D2 D2 | D2 D2 D2 | D2 D2 D2 | x6 | x6 | x6 | x6 | x6 | x6 | x6 | x6 | x6 | x6 | x6 | %83
 x6 | x6 | x6 | x6 | x6 | x6 | x6 | x6 | x6 | x6 | x6 | x6 | x6 | x6 | x6 | x6 | x6 | x6 | x6 | %102
 x6 | x6 | x6 | x6 | x6 | x6 | x6 | x6 | x6 | x6 | x6 | x6 | x6 | x6 | x6 | x6 | x6 | x6 | %120
 D2 D2 D2 | D2 D2 D2 | D2 D2 D2 | D2 D2 D2 | x6 | x6 | x6 | x6 | x6 | x6 | x6 | x6 | x6 | x6 | x6 | %135
 x6 | x6 | x6 | x6 | x6 | x6 | x6 | x6 | x6 | x6 | x6 | x6 | x6 | x6 | x6 | x6 | x6 | x6 | x6 | %154
 x6 | x6 | x6 | x6 | x6 | x6 | x6 | x6 | x6 | x6 | x6 | x6 | D2 D2 D2 | D2 D2 D2 | D2 D2 D2 | %169
 D2 A2 d2 | x6 | x6 | x6 | x6 | x6 | x6 | x6 | x6 | x6 | x6 | x6 | x6 | x6 | x6 | x6 | x6 | x6 | %187
 x6 | x6 | x6 | x6 | x6 | x6 | x6 | x6 | x6 | x6 | x6 | x6 | x6 | x6 | x6 | x6 | x6 | D2 D2 D2 | %205
 D2 D2 D2 | D2 D2 D2 | D2 D2 D2 | x6 | x6 | x6 | x6 | x6 | x6 | x6 | x6 |] %216

